svg/headscale-light.svg

<svg xmlns="http://www.w3.org/2000/svg" xml:space="preserve" viewBox="0 0 512 512"><path d="M49.5 208.4c27.3 0 49.5 22.3 49.5 49.9s-22.2 49.9-49.5 49.9S0 285.9 0 258.3s22.2-49.9 49.5-49.9m86.4 11.8c7.8 0 14.2 6.3 14.2 14s-6.4 14-14.2 14-14.2-6.3-14.2-14 6.4-14 14.2-14m0 49c7.8 0 14.2 6.3 14.2 14s-6.4 14-14.2 14-14.2-6.3-14.2-14 6.4-14 14.2-14m64 0c7.8 0 14.2 6.3 14.2 14s-6.4 14-14.2 14-14.2-6.3-14.2-14 6.4-14 14.2-14m.2-49c7.8 0 14.2 6.3 14.2 14s-6.4 14-14.2 14-14.2-6.3-14.2-14 6.4-14 14.2-14M325 208.8c27.4 0 49.6 22.4 49.6 50s-22.2 50-49.6 50-49.6-22.4-49.6-50 22.2-50 49.6-50m106.6 0c27.4 0 49.6 22.4 49.6 50s-22.2 50-49.6 50-49.6-22.4-49.6-50 22.2-50 49.6-50m-158.3-35.3h-28.8v165h28.8v-11.9h-17v-141h17zm209.9 0H512v165h-28.8v-11.9h17v-141h-17z" style="fill-rule:evenodd;clip-rule:evenodd;fill:#fff"/></svg>

<?xml version="1.0" encoding="utf-8"?>
<!-- Generator: Adobe Illustrator 28.2.0, SVG Export Plug-In . SVG Version: 6.00 Build 0)  -->
<svg version="1.1" id="Layer_1" xmlns="http://www.w3.org/2000/svg" xmlns:xlink="http://www.w3.org/1999/xlink" x="0px" y="0px"
	 viewBox="0 0 512 512" style="enable-background:new 0 0 512 512;" xml:space="preserve">
<style type="text/css">
	.st0{fill-rule:evenodd;clip-rule:evenodd;fill:#FFFFFF;}
</style>
<path class="st0" d="M49.5,208.4c27.3,0,49.5,22.3,49.5,49.9s-22.2,49.9-49.5,49.9S0,285.9,0,258.3S22.2,208.4,49.5,208.4z
	 M135.9,220.2c7.8,0,14.2,6.3,14.2,14s-6.4,14-14.2,14s-14.2-6.3-14.2-14S128.1,220.2,135.9,220.2z M135.9,269.2
	c7.8,0,14.2,6.3,14.2,14s-6.4,14-14.2,14s-14.2-6.3-14.2-14S128.1,269.2,135.9,269.2z M199.9,269.2c7.8,0,14.2,6.3,14.2,14
	s-6.4,14-14.2,14s-14.2-6.3-14.2-14S192.1,269.2,199.9,269.2z M200.1,220.2c7.8,0,14.2,6.3,14.2,14s-6.4,14-14.2,14
	s-14.2-6.3-14.2-14S192.3,220.2,200.1,220.2z M325,208.8c27.4,0,49.6,22.4,49.6,50s-22.2,50-49.6,50s-49.6-22.4-49.6-50
	S297.6,208.8,325,208.8z M431.6,208.8c27.4,0,49.6,22.4,49.6,50s-22.2,50-49.6,50s-49.6-22.4-49.6-50S404.2,208.8,431.6,208.8z
	 M273.3,173.5h-28.8v165h28.8v-11.9h-17v-141h17V173.5z M483.2,173.5H512v165h-28.8v-11.9h17v-141h-17V173.5z"/>
</svg>
